src/pos-icons/opacity.svg

<svg height="24" viewBox="0 0 24 24" width="24" xmlns="http://www.w3.org/2000/svg"><path d="m17.66 8-5.66-5.65-5.66 5.65c-1.56 1.56-2.34 3.64-2.34 5.64s.78 4.11 2.34 5.67 3.61 2.35 5.66 2.35 4.1-.79 5.66-2.35 2.34-3.67 2.34-5.67-.78-4.08-2.34-5.64m-11.66 6c0-2 .62-3.27 1.76-4.4l4.24-4.33 4.24 4.38c1.14 1.12 1.76 2.35 1.76 4.35z"/></svg>

<?xml version="1.0" encoding="UTF-8"?><!DOCTYPE svg PUBLIC "-//W3C//DTD SVG 1.1//EN" "http://www.w3.org/Graphics/SVG/1.1/DTD/svg11.dtd"><svg xmlns="http://www.w3.org/2000/svg" xmlns:xlink="http://www.w3.org/1999/xlink" version="1.1" id="mdi-opacity" width="24" height="24" viewBox="0 0 24 24"><path d="M17.66,8L12,2.35L6.34,8C4.78,9.56 4,11.64 4,13.64C4,15.64 4.78,17.75 6.34,19.31C7.9,20.87 9.95,21.66 12,21.66C14.05,21.66 16.1,20.87 17.66,19.31C19.22,17.75 20,15.64 20,13.64C20,11.64 19.22,9.56 17.66,8M6,14C6,12 6.62,10.73 7.76,9.6L12,5.27L16.24,9.65C17.38,10.77 18,12 18,14H6Z" /></svg>
